images_files/dinosaursVG/pachyB.svg

<svg width="272" height="119" viewBox="0 0 272 119" fill="none" xmlns="http://www.w3.org/2000/svg">
<path d="M49.5676 30.463L44.5629 38.0439M44.5629 38.0439L43.2409 40.0464L20.8101 48.4856L8.01302 44.3375L6 35.6123L12.3266 27.1732L12.9018 24.1694L12.3266 23.0251M44.5629 38.0439L70.2729 52.9197H72.4297L73.4362 45.6248L72.7173 53.3488L75.0179 60.9297L58.4824 73.803L61.9333 86.5332H65.5279V78.6662L71.567 72.9448L81.057 70.9423L86.2333 65.2208L87.096 60.143M87.9588 55.0652L87.096 60.143M87.096 60.143L106.795 65.2208M106.795 65.2208L115.566 41.9059M106.795 65.2208V82.0991L109.527 99.4065L105.213 108.704L95.0043 117L121.03 116.285L123.474 111.136L122.468 102.553V88.6788L128.177 75.6625M147.487 48.4856L135.091 65.2208M128.177 75.6625L129.37 72.9448L135.091 65.2208M128.177 75.6625L147.487 94.6863L133.539 113.853H151.8L165.029 92.5408L139.291 63.5044M139.291 63.5044L135.091 65.2208M139.291 63.5044L145.33 62.2171L193.93 69.798L257.34 82.0991H271L228.439 67.0803L192.061 45.6248L153.382 25.0276L137.997 18.877L90.6907 21.1656H84.5079L66.6782 18.877L55.0315 14.1568L50.8616 12.4404M50.8616 12.4404L55.8942 3L46.9794 9.43664M50.8616 12.4404L46.9794 9.43664M46.9794 9.43664L44.5629 10.661M46.9794 9.43664L43.7389 7.43413M46.9794 9.43664L48.8486 4.14429C47.3149 5.2409 44.1457 7.43413 43.7389 7.43413M12.9018 18.877L20.3787 7.43413L33.1758 3.57215H37.4894L43.7389 7.43413M12.9018 18.877L6 17.3036L9.73847 20.7365M12.9018 18.877L7.43787 22.3099L12.3266 23.0251M16.0651 22.1669L12.3266 23.0251M16.0651 22.1669L17.6468 18.877L21.5011 21.6577L21.2136 13.6476L25.5272 19.083L25.1237 13.5217L31.3066 17.4467L30.4438 14.1568L34.354 15.8103M16.0651 22.1669C17.1004 21.7092 20.9739 22.2298 21.9325 21.6577L26.2461 19.083L32.1693 17.4467L34.354 15.8103M16.0651 22.1669L12.9018 19.0201L12.3266 23.0251M34.354 15.8103L33.0599 10.661L37.9487 13.5217M34.354 15.8103L37.9487 13.5217M37.9487 13.5217L37.5173 7.94333L42.2623 12.5205M37.9487 13.5217L41.3996 12.7207M42.2623 12.5205L42.6937 7.94333L44.5629 10.661M42.2623 12.5205L41.3996 12.7207M44.5629 10.661L41.3996 12.7207" stroke="#171A1C" stroke-width="3"/>
</svg>

<svg xmlns="http://www.w3.org/2000/svg" width="272" height="119" fill="none" xmlns:v="https://vecta.io/nano"><path d="M49.568 30.463l-5.005 7.581m0 0l-1.322 2.002-22.431 8.439-12.797-4.148L6 35.612l6.327-8.439.575-3.004-.575-1.144m32.236 15.019l25.71 14.876h2.157l1.007-7.295-.719 7.724 2.301 7.581-16.535 12.873 3.451 12.73h3.595v-7.867l6.039-5.721 9.49-2.002 5.176-5.722.863-5.078m.863-5.078l-.863 5.078m0 0l19.699 5.078m0 0l8.771-23.315m-8.771 23.315v16.878l2.732 17.307-4.314 9.298L95.004 117l26.026-.715 2.444-5.149-1.006-8.583V88.679l5.709-13.016m19.31-27.177l-12.396 16.735m-6.914 10.442l1.193-2.718 5.721-7.724m-6.914 10.442l19.31 19.024-13.948 19.167H151.8l13.229-21.312-25.738-29.036m0 0l-4.2 1.716m4.2-1.716l6.039-1.287 48.6 7.581 63.41 12.301H271L228.439 67.08l-36.378-21.455-38.679-20.597-15.385-6.151-47.306 2.289h-6.183l-17.83-2.289-11.647-4.72-4.17-1.716m0 0L55.894 3l-8.915 6.437m3.882 3.004l-3.882-3.004m0 0l-2.416 1.224m2.416-1.224l-3.24-2.003m3.24 2.003l1.869-5.292-5.11 3.29M12.902 18.877l7.477-11.443 12.797-3.862h4.314l6.249 3.862M12.902 18.877L6 17.304l3.738 3.433m3.163-1.86L7.438 22.31l4.889.715m3.739-.858l-3.739.858m3.739-.858l1.582-3.29 3.854 2.781-.288-8.01 4.314 5.435-.404-5.561 6.183 3.925-.863-3.29 3.91 1.653m-18.289 6.357c1.035-.458 4.909.063 5.867-.509l4.314-2.575 5.923-1.636 2.185-1.636m-18.289 6.357l-3.163-3.147-.575 4.005m22.027-7.215l-1.294-5.149 4.889 2.861m-3.595 2.289l3.595-2.289m0 0l-.431-5.578 4.745 4.577m-4.314 1.001l3.451-.801m.863-.2l.431-4.577 1.869 2.718m-2.301 1.86l-.863.2m3.163-2.06l-3.163 2.06" stroke="#171a1c" stroke-width="3"/></svg>
